public/images/partner3.svg

<svg width="152" height="38" viewBox="0 0 152 38" fill="none" xmlns="http://www.w3.org/2000/svg">
<path fill-rule="evenodd" clip-rule="evenodd" d="M18.4047 28.1245C23.9648 28.1245 28.4722 23.6172 28.4722 18.0571C28.4722 12.497 23.9648 7.98964 18.4047 7.98964C12.8446 7.98964 8.3373 12.497 8.3373 18.0571C8.3373 23.6172 12.8446 28.1245 18.4047 28.1245ZM18.4047 35.8231C28.2167 35.8231 36.1708 27.869 36.1708 18.0571C36.1708 8.24515 28.2167 0.291016 18.4047 0.291016C8.59281 0.291016 0.638672 8.24515 0.638672 18.0571C0.638672 27.869 8.59281 35.8231 18.4047 35.8231Z" fill="#6938EF"/>
<path d="M18.608 18.4457C20.4582 16.5955 23.4579 16.5955 25.308 18.4457L34.5205 27.6582C36.3707 29.5084 36.3707 32.5081 34.5205 34.3582C32.6704 36.2084 29.6707 36.2084 27.8205 34.3582L18.608 25.1457C16.7579 23.2956 16.7579 20.2959 18.608 18.4457Z" fill="#F670C7"/>
<path d="M21.1943 27.7317L27.0453 33.5827C29.8517 32.0175 32.1898 29.7136 33.7965 26.9339L27.9935 21.1309C26.9742 24.3121 24.4157 26.8045 21.1943 27.7317Z" fill="#6519BA"/>
<path d="M64.8549 27.8279C64.3423 28.461 63.7168 28.9434 62.9781 29.275C62.2546 29.6067 61.4556 29.7725 60.5813 29.7725C59.4055 29.7725 58.3428 29.5162 57.3931 29.0037C56.4434 28.5062 55.3581 27.6169 54.1371 26.3356C52.705 26.1547 51.4237 25.6949 50.2931 24.9563C49.1777 24.2176 48.3033 23.2679 47.6702 22.1072C47.0522 20.9314 46.7432 19.6351 46.7432 18.2181C46.7432 16.6654 47.1125 15.2711 47.8511 14.035C48.6048 12.7838 49.6374 11.804 50.9489 11.0955C52.2754 10.387 53.7602 10.0328 55.4033 10.0328C57.0464 10.0328 58.5237 10.387 59.8351 11.0955C61.1466 11.804 62.1792 12.7838 62.9329 14.035C63.6866 15.2711 64.0635 16.6654 64.0635 18.2181C64.0635 20.0571 63.5434 21.6701 62.5033 23.0569C61.4782 24.4437 60.114 25.4085 58.4106 25.9512C58.7875 26.3431 59.1493 26.622 59.496 26.7878C59.8577 26.9687 60.2421 27.0591 60.6491 27.0591C61.629 27.0591 62.4882 26.6672 63.2268 25.8833L64.8549 27.8279ZM50.4514 18.2181C50.4514 19.1979 50.6625 20.0722 51.0845 20.841C51.5217 21.6098 52.1171 22.2127 52.8708 22.6499C53.6246 23.072 54.4687 23.283 55.4033 23.283C56.3379 23.283 57.1821 23.072 57.9358 22.6499C58.6895 22.2127 59.2774 21.6098 59.6995 20.841C60.1366 20.0722 60.3552 19.1979 60.3552 18.2181C60.3552 17.2382 60.1366 16.3639 59.6995 15.5952C59.2774 14.8264 58.6895 14.2309 57.9358 13.8089C57.1821 13.3717 56.3379 13.1531 55.4033 13.1531C54.4687 13.1531 53.6246 13.3717 52.8708 13.8089C52.1171 14.2309 51.5217 14.8264 51.0845 15.5952C50.6625 16.3639 50.4514 17.2382 50.4514 18.2181Z" fill="white"/>
<path d="M78.823 13.9671V26.132H75.4765V24.6849C75.0092 25.2125 74.4515 25.6195 73.8033 25.9059C73.1551 26.1773 72.4542 26.3129 71.7004 26.3129C70.1026 26.3129 68.8363 25.8532 67.9017 24.9336C66.9671 24.0141 66.4998 22.6499 66.4998 20.841V13.9671H70.0272V20.3209C70.0272 22.2806 70.8487 23.2604 72.4918 23.2604C73.336 23.2604 74.0143 22.9891 74.5269 22.4464C75.0394 21.8887 75.2956 21.0671 75.2956 19.9818V13.9671H78.823Z" fill="white"/>
<path d="M87.8794 26.3129C86.5981 26.3129 85.4449 26.0491 84.4199 25.5215C83.4099 24.9789 82.6185 24.2327 82.0457 23.283C81.4728 22.3333 81.1864 21.2555 81.1864 20.0496C81.1864 18.8437 81.4728 17.7658 82.0457 16.8162C82.6185 15.8665 83.4099 15.1279 84.4199 14.6003C85.4449 14.0576 86.5981 13.7863 87.8794 13.7863C89.1607 13.7863 90.3063 14.0576 91.3163 14.6003C92.3263 15.1279 93.1177 15.8665 93.6905 16.8162C94.2633 17.7658 94.5497 18.8437 94.5497 20.0496C94.5497 21.2555 94.2633 22.3333 93.6905 23.283C93.1177 24.2327 92.3263 24.9789 91.3163 25.5215C90.3063 26.0491 89.1607 26.3129 87.8794 26.3129ZM87.8794 23.4187C88.7838 23.4187 89.5225 23.1172 90.0953 22.5142C90.6832 21.8962 90.9771 21.0746 90.9771 20.0496C90.9771 19.0245 90.6832 18.2105 90.0953 17.6076C89.5225 16.9895 88.7838 16.6805 87.8794 16.6805C86.9749 16.6805 86.2288 16.9895 85.6409 17.6076C85.053 18.2105 84.759 19.0245 84.759 20.0496C84.759 21.0746 85.053 21.8962 85.6409 22.5142C86.2288 23.1172 86.9749 23.4187 87.8794 23.4187Z" fill="white"/>
<path d="M104.754 25.5442C104.407 25.8004 103.977 25.9964 103.465 26.132C102.967 26.2526 102.44 26.3129 101.882 26.3129C100.435 26.3129 99.3118 25.9436 98.5129 25.205C97.729 24.4663 97.3371 23.381 97.3371 21.9489V16.9518H95.4604V14.2385H97.3371V11.2764H100.864V14.2385H103.894V16.9518H100.864V21.9037C100.864 22.4163 100.993 22.8157 101.249 23.1021C101.52 23.3735 101.897 23.5091 102.379 23.5091C102.937 23.5091 103.412 23.3584 103.804 23.0569L104.754 25.5442Z" fill="white"/>
<path d="M106.734 13.9671H110.261V26.132H106.734V13.9671ZM108.497 12.2713C107.849 12.2713 107.322 12.0829 106.915 11.706C106.508 11.3292 106.304 10.8618 106.304 10.3041C106.304 9.74636 106.508 9.27905 106.915 8.9022C107.322 8.52534 107.849 8.33691 108.497 8.33691C109.146 8.33691 109.673 8.51781 110.08 8.87959C110.487 9.24137 110.691 9.6936 110.691 10.2363C110.691 10.8242 110.487 11.3141 110.08 11.706C109.673 12.0829 109.146 12.2713 108.497 12.2713Z" fill="white"/>
<path d="M125.451 20.0948C125.451 20.14 125.428 20.4566 125.383 21.0445H116.18C116.346 21.7982 116.738 22.3936 117.356 22.8308C117.974 23.2679 118.743 23.4865 119.662 23.4865C120.296 23.4865 120.853 23.3961 121.336 23.2152C121.833 23.0192 122.293 22.7177 122.715 22.3107L124.592 24.3458C123.446 25.6572 121.773 26.3129 119.572 26.3129C118.2 26.3129 116.987 26.0491 115.932 25.5215C114.876 24.9789 114.062 24.2327 113.49 23.283C112.917 22.3333 112.63 21.2555 112.63 20.0496C112.63 18.8587 112.909 17.7885 113.467 16.8388C114.04 15.874 114.816 15.1279 115.796 14.6003C116.791 14.0576 117.899 13.7863 119.12 13.7863C120.311 13.7863 121.388 14.0425 122.353 14.555C123.318 15.0676 124.072 15.8062 124.614 16.7709C125.172 17.7206 125.451 18.8286 125.451 20.0948ZM119.142 16.4544C118.343 16.4544 117.673 16.6805 117.13 17.1327C116.587 17.585 116.256 18.203 116.135 18.9869H122.127C122.007 18.2181 121.675 17.6076 121.132 17.1553C120.59 16.688 119.926 16.4544 119.142 16.4544Z" fill="white"/>
<path d="M135.193 13.7863C136.701 13.7863 137.914 14.2385 138.834 15.1429C139.768 16.0474 140.236 17.389 140.236 19.1678V26.132H136.708V19.7104C136.708 18.7457 136.497 18.0296 136.075 17.5623C135.653 17.08 135.043 16.8388 134.244 16.8388C133.354 16.8388 132.646 17.1177 132.118 17.6754C131.591 18.2181 131.327 19.0321 131.327 20.1174V26.132H127.799V13.9671H131.168V15.3917C131.636 14.8791 132.216 14.4872 132.91 14.2159C133.603 13.9295 134.364 13.7863 135.193 13.7863Z" fill="white"/>
<path d="M151.279 25.5442C150.932 25.8004 150.503 25.9964 149.99 26.132C149.493 26.2526 148.965 26.3129 148.408 26.3129C146.96 26.3129 145.837 25.9436 145.038 25.205C144.255 24.4663 143.863 23.381 143.863 21.9489V16.9518H141.986V14.2385H143.863V11.2764H147.39V14.2385H150.42V16.9518H147.39V21.9037C147.39 22.4163 147.518 22.8157 147.774 23.1021C148.046 23.3735 148.423 23.5091 148.905 23.5091C149.463 23.5091 149.938 23.3584 150.329 23.0569L151.279 25.5442Z" fill="white"/>
</svg>

<svg width="152" height="38" fill="none" xmlns="http://www.w3.org/2000/svg"><path fill-rule="evenodd" clip-rule="evenodd" d="M18.405 28.125c5.56 0 10.067-4.508 10.067-10.068S23.965 7.99 18.405 7.99c-5.56 0-10.068 4.507-10.068 10.067 0 5.56 4.508 10.068 10.068 10.068zm0 7.698c9.812 0 17.766-7.954 17.766-17.766C36.17 8.245 28.217.291 18.405.291 8.593.291.639 8.245.639 18.057c0 9.812 7.954 17.766 17.766 17.766z" fill="#6938EF"/><path d="M18.608 18.446a4.738 4.738 0 0 1 6.7 0l9.212 9.212a4.738 4.738 0 1 1-6.7 6.7l-9.212-9.212a4.738 4.738 0 0 1 0-6.7z" fill="#F670C7"/><path d="m21.194 27.732 5.851 5.85a17.852 17.852 0 0 0 6.752-6.648l-5.803-5.803a10.09 10.09 0 0 1-6.8 6.6z" fill="#6519BA"/><path d="M64.855 27.828a5.039 5.039 0 0 1-1.877 1.447c-.723.332-1.522.498-2.397.498-1.175 0-2.238-.257-3.188-.77-.95-.497-2.035-1.386-3.256-2.667-1.432-.181-2.713-.641-3.844-1.38a7.923 7.923 0 0 1-2.623-2.849c-.618-1.176-.927-2.472-.927-3.889 0-1.553.37-2.947 1.108-4.183a7.963 7.963 0 0 1 3.098-2.94c1.326-.708 2.811-1.062 4.454-1.062 1.643 0 3.12.354 4.432 1.063a7.963 7.963 0 0 1 3.098 2.939c.754 1.236 1.13 2.63 1.13 4.183 0 1.84-.52 3.452-1.56 4.839-1.025 1.387-2.389 2.352-4.092 2.894.377.392.738.671 1.085.837.362.18.746.271 1.153.271.98 0 1.84-.392 2.578-1.176l1.628 1.945zm-14.404-9.61c0 .98.212 1.854.633 2.623a4.788 4.788 0 0 0 1.787 1.809c.754.422 1.598.633 2.532.633.935 0 1.78-.211 2.533-.633A4.625 4.625 0 0 0 59.7 20.84c.437-.769.655-1.643.655-2.623 0-.98-.218-1.854-.655-2.623a4.47 4.47 0 0 0-1.764-1.786c-.754-.437-1.598-.656-2.533-.656-.934 0-1.778.219-2.532.656a4.623 4.623 0 0 0-1.787 1.786c-.422.769-.633 1.643-.633 2.623zM78.823 13.967v12.165h-3.346v-1.447a4.8 4.8 0 0 1-1.674 1.22 5.39 5.39 0 0 1-2.103.408c-1.597 0-2.864-.46-3.798-1.38-.935-.919-1.402-2.283-1.402-4.092v-6.874h3.527v6.354c0 1.96.822 2.94 2.465 2.94.844 0 1.522-.272 2.035-.815.512-.557.769-1.379.769-2.464v-6.015h3.527zM87.88 26.313c-1.282 0-2.435-.264-3.46-.791a6.065 6.065 0 0 1-2.374-2.239c-.573-.95-.86-2.027-.86-3.233s.287-2.284.86-3.234A5.906 5.906 0 0 1 84.42 14.6c1.025-.542 2.178-.814 3.46-.814 1.28 0 2.426.272 3.436.814a5.906 5.906 0 0 1 2.374 2.216c.573.95.86 2.028.86 3.234s-.287 2.283-.86 3.233a6.065 6.065 0 0 1-2.374 2.238c-1.01.528-2.155.792-3.437.792zm0-2.894c.904 0 1.642-.302 2.215-.905.588-.618.882-1.44.882-2.464 0-1.026-.294-1.84-.882-2.442-.573-.619-1.311-.928-2.216-.928-.904 0-1.65.31-2.238.928-.588.602-.882 1.416-.882 2.442 0 1.025.294 1.846.882 2.464.588.603 1.334.905 2.238.905zM104.754 25.544c-.347.256-.777.452-1.289.588-.498.12-1.025.18-1.583.18-1.447 0-2.57-.368-3.37-1.107-.783-.739-1.175-1.824-1.175-3.256v-4.997H95.46v-2.714h1.877v-2.962h3.527v2.963h3.03v2.713h-3.03v4.952c0 .512.129.912.385 1.198.271.271.648.407 1.13.407.558 0 1.033-.15 1.425-.452l.95 2.487zM106.734 13.967h3.527v12.165h-3.527V13.967zm1.763-1.696c-.648 0-1.175-.188-1.582-.565a1.834 1.834 0 0 1-.611-1.402c0-.558.204-1.025.611-1.402.407-.377.934-.565 1.582-.565.649 0 1.176.18 1.583.543.407.361.611.814.611 1.356 0 .588-.204 1.078-.611 1.47-.407.377-.934.565-1.583.565zM125.451 20.095c0 .045-.023.362-.068.95h-9.203c.166.753.558 1.349 1.176 1.786.618.437 1.387.655 2.306.655.634 0 1.191-.09 1.674-.27a4.205 4.205 0 0 0 1.379-.905l1.877 2.035c-1.146 1.311-2.819 1.967-5.02 1.967-1.372 0-2.585-.264-3.64-.791-1.056-.543-1.87-1.29-2.442-2.239-.573-.95-.86-2.027-.86-3.233 0-1.191.279-2.262.837-3.211a5.936 5.936 0 0 1 2.329-2.239c.995-.542 2.103-.814 3.324-.814 1.191 0 2.268.257 3.233.769a5.513 5.513 0 0 1 2.261 2.216c.558.95.837 2.058.837 3.324zm-6.309-3.64c-.799 0-1.469.226-2.012.678-.543.452-.874 1.07-.995 1.854h5.992c-.12-.769-.452-1.38-.995-1.832-.542-.467-1.206-.7-1.99-.7zM135.193 13.786c1.508 0 2.721.453 3.641 1.357.934.904 1.402 2.246 1.402 4.025v6.964h-3.528V19.71c0-.964-.211-1.68-.633-2.148-.422-.482-1.032-.723-1.831-.723-.89 0-1.598.279-2.126.836-.527.543-.791 1.357-.791 2.442v6.015h-3.528V13.967h3.369v1.425a4.57 4.57 0 0 1 1.742-1.176 5.92 5.92 0 0 1 2.283-.43zM151.279 25.544c-.347.256-.776.452-1.289.588-.497.12-1.025.18-1.582.18-1.448 0-2.571-.368-3.37-1.107-.783-.739-1.175-1.824-1.175-3.256v-4.997h-1.877v-2.714h1.877v-2.962h3.527v2.963h3.03v2.713h-3.03v4.952c0 .512.128.912.384 1.198.272.271.649.407 1.131.407.558 0 1.033-.15 1.424-.452l.95 2.487z" fill="#fff"/></svg>
